X:0928
T:Mr. A. Pearson's Strathsy.
M:C
L:1/8
Q:1/4=120
I: :: :|
N:initial repeat bar added
N:bar 2 printed with the G having both a dot and a doubled beam
Z:Jack Campin * www.campin.me.uk * 2009
K:B Minor
g|:e>dB<G dAAg|e>dB<G B<dg>a|b/a/g/f/ ge  dB`A>g|e<Bg>a bB B2:|
   eB`gB  dAAd|eB`ge  dB`bg |af```````g>e d>BAg |e<Bga  bB B2:|
<end>
<start>
